X: 17
T:Ymdaith Corwen
T:The Corwen Quick March
M:6/8
L:1/8
Q:130
S:Cadw Twmpath Collection
R:Jig
A:Wales
Z:brian_martin12345@yahoo.com
K:G
B/c/|dedd2g|d2dd2B/c/|ded dcB|AAAA2B/c/|
dedd2g|d2dd2e|dcB cBA|GGGG2:||
B/c/|dBG dBG|AAA ABc|dBG dBG|DDDD2B/c/|
dBG dBG|AAA ABc|ded cBA|GGGG2:||
